X:1
T:Title
%%score { 1 | 2 }
L:1/8
Q:1/4=100
M:4/4
K:Ab
V:1 treble nm="Grand Piano"
V:2 bass 
V:1
 [CE]2 [Ec]2 [Ec]>[DB] [CA]2 | [DF]2 [FA]2 [EG]>[DF] [CE]2 | [CE]2 [EA]2 B3 A | B2 c2 B4 | %4
 [CE]2 [Ec]2 [Ec]>[DB] [CA]2 | [DF]2 [FA]2 [EG]>[DF] [CE]2 | [CE]2 [EA]2 B3 A | c2 B2 [CA]4 | %8
 [CE]4 [CEA]4 |[M:5/4] [A,FA]4 F6 |[M:4/4] E2 A2 A2 G2 |[M:3/4] [CA]6 |] %12
V:2
 [A,,A,]2 [A,,A,]2 [A,,A,]2 [A,,A,]2 | [A,,A,]2 [A,,A,]2 [A,,A,]2 [A,,A,]2 | %2
 [A,,A,]2 [C,A,]2 [E,G,E]3 [E,A,C] | [E,G,E]2 [A,E]2 [E,G,E]4 | %4
 [A,,A,]2 [A,,A,]2 [A,,A,]2 [A,,A,]2 | [A,,A,]2 [A,,A,]2 [A,,A,]2 [A,,A,]2 | %6
 [A,,A,]2 [C,A,]2 [E,G,D]3 [E,A,C] | [E,A,E]2 [E,G,D]2 [A,,A,]4 | [A,,A,]4 A,,4 | %9
[M:5/4] D,4 [D,A,D]6 |[M:4/4] [E,A,C]2 [E,A,C]2 [E,CE]2 [E,B,D]2 |[M:3/4] [A,,A,]6 |] %12

